img/icon-commodities.svg

<?xml version="1.0" encoding="UTF-8"?>
<svg width="80px" height="80px" viewBox="0 0 80 80" version="1.1" xmlns="http://www.w3.org/2000/svg" xmlns:xlink="http://www.w3.org/1999/xlink">
    <title>Group 15</title>
    <defs>
        <rect id="path-1" x="0" y="0" width="80" height="80"></rect>
        <polygon id="path-3" points="0 0 40 0 40 20 0 20"></polygon>
        <polygon id="path-5" points="0 0 3.75 0 3.75 15 0 15"></polygon>
    </defs>
    <g id="Final" stroke="none" stroke-width="1" fill="none" fill-rule="evenodd">
        <g id="Product-design---desktop" transform="translate(-156.000000, -1084.000000)">
            <g id="Group-15" transform="translate(156.000000, 1084.000000)">
                <mask id="mask-2" fill="white">
                    <use xlink:href="#path-1"></use>
                </mask>
                <g id="Mask"></g>
                <g mask="url(#mask-2)">
                    <g transform="translate(0.000000, 6.250000)">
                        <g id="Group-3" stroke-width="1" fill="none" transform="translate(0.000000, 48.750000)">
                            <mask id="mask-4" fill="white">
                                <use xlink:href="#path-3"></use>
                            </mask>
                            <g id="Clip-2"></g>
                            <path d="M3.7834579,16.3636364 L36.2165049,16.3636364 L32.4220736,3.63636364 L7.57788915,3.63636364 L3.7834579,16.3636364 Z M36.7717786,20 L3.22818423,20 C2.21709436,20 1.28417588,19.532 0.668713916,18.716 C0.0341678643,17.8749091 -0.163646087,16.7665455 0.139130369,15.7516364 L4.13981661,2.33309091 C4.55562961,0.937818182 5.79719658,0 7.22887047,0 L32.7710923,0 C34.2027662,0 35.4443332,0.937818182 35.8605132,2.33345455 L39.8608324,15.7516364 C40.1636089,16.7665455 39.9657949,17.8749091 39.3312489,18.716 C38.7161539,19.532 37.7828684,20 36.7717786,20 L36.7717786,20 Z" id="Fill-1" fill="#00BECB" mask="url(#mask-4)"></path>
                        </g>
                        <path d="M76.7011783,68.75 L47.7505784,68.75 C46.7147936,68.75 45.8755153,67.9361818 45.8755153,66.9318182 C45.8755153,65.9274545 46.7147936,65.1136364 47.7505784,65.1136364 L76.1341593,65.1136364 L72.2565287,52.3863636 L46.8700488,52.3863636 L46.1736503,54.6729091 C45.8800155,55.6354545 44.8397304,56.186 43.8440719,55.9012727 C42.8510385,55.6169091 42.2840194,54.6056364 42.5772792,53.6423636 L43.3569305,51.0830909 C43.7818198,49.6878182 45.0508625,48.75 46.5137868,48.75 L72.6131657,48.75 C74.0760899,48.75 75.3451327,49.6878182 75.770022,51.0834545 L79.8580347,64.5016364 C80.1670451,65.5169091 79.9649132,66.6249091 79.3168914,67.466 C78.6876202,68.282 77.7343381,68.75 76.7011783,68.75" id="Fill-4" fill="#00BECB"></path>
                        <path d="M21.8420941,43.75 C21.669424,43.75 21.4938086,43.7249849 21.320034,43.6722055 C20.344761,43.3773951 19.787725,42.3285939 20.0759994,41.3303101 L24.0893823,27.4188025 C24.506515,25.9718942 25.7520222,25 27.1882397,25 L52.8115231,25 C54.2477406,25 55.4932478,25.9718942 55.9107486,27.4188025 L59.9241316,41.3303101 C60.2120378,42.3285939 59.65537,43.3773951 58.6804651,43.6722055 C57.7044558,43.9673929 56.6813211,43.3966219 56.3934149,42.398715 L52.4613968,28.7699541 L27.538366,28.7699541 L23.6067161,42.398715 C23.369985,43.2186801 22.6369655,43.75 21.8420941,43.75" id="Fill-6" fill="#00BECB"></path>
                        <g id="Group-10" stroke-width="1" fill="none" transform="translate(38.750000, 0.000000)">
                            <mask id="mask-6" fill="white">
                                <use xlink:href="#path-5"></use>
                            </mask>
                            <g id="Clip-9"></g>
                            <path d="M1.875,15 C0.839625,15 0,14.1859346 0,13.1820782 L0,1.81788544 C0,0.814029024 0.839625,-3.6358436e-05 1.875,-3.6358436e-05 C2.91075,-3.6358436e-05 3.75,0.814029024 3.75,1.81788544 L3.75,13.1820782 C3.75,14.1859346 2.91075,15 1.875,15" id="Fill-8" fill="#00BECB" mask="url(#mask-6)"></path>
                        </g>
                        <path d="M56.7522819,18.75 C56.3040482,18.75 55.8551135,18.5789773 55.5134186,18.2369319 C55.1710227,17.894536 55,17.4463023 55,16.9977181 C55,16.549134 55.1710227,16.1009003 55.5134186,15.7585044 L59.385611,11.8859615 L59.3859615,11.8859615 L63.2585044,8.01306813 C63.9425952,7.32897729 65.052841,7.32897729 65.7365814,8.01306813 C66.0786268,8.355464 66.25,8.8036977 66.25,9.25228186 C66.25,9.70086602 66.0786268,10.1490997 65.7365814,10.4914956 L57.9911451,18.2369319 C57.6494502,18.5789773 57.2005156,18.75 56.7522819,18.75" id="Fill-11" fill="#00BECB"></path>
                        <path d="M23.2477181,18.75 C22.799134,18.75 22.3509003,18.5789773 22.0088549,18.2369319 L14.2630681,10.4914956 C13.9210227,10.1490997 13.75,9.70086602 13.75,9.25228186 C13.75,8.8036977 13.9210227,8.355464 14.2630681,8.01306813 C14.9475094,7.32897729 16.0567038,7.32897729 16.7414956,8.01306813 L20.6140385,11.8859615 L20.6140385,11.8859615 L24.4865814,15.7585044 C24.8289773,16.1005498 25,16.549134 25,16.9977181 C25,17.4459518 24.8289773,17.894536 24.4869319,18.2365814 C24.1448865,18.5789773 23.6963023,18.75 23.2477181,18.75" id="Fill-13" fill="#00BECB"></path>
                    </g>
                </g>
            </g>
        </g>
    </g>
</svg>

<?xml version="1.0" encoding="utf-8"?>
<!-- Generator: Adobe Illustrator 25.2.0, SVG Export Plug-In . SVG Version: 6.00 Build 0)  -->
<svg version="1.1" id="Layer_1" xmlns="http://www.w3.org/2000/svg" xmlns:xlink="http://www.w3.org/1999/xlink" x="0px" y="0px"
	 viewBox="0 0 80 80" style="enable-background:new 0 0 80 80;" xml:space="preserve">
<style type="text/css">
	.st0{filter:url(#Adobe_OpacityMaskFilter);}
	.st1{fill-rule:evenodd;clip-rule:evenodd;fill:#FFFFFF;}
	.st2{mask:url(#mask-2_1_);}
	.st3{filter:url(#Adobe_OpacityMaskFilter_1_);}
	.st4{mask:url(#mask-4_1_);fill-rule:evenodd;clip-rule:evenodd;fill:#0065E6;}
	.st5{fill-rule:evenodd;clip-rule:evenodd;fill:#0065E6;}
	.st6{filter:url(#Adobe_OpacityMaskFilter_2_);}
	.st7{mask:url(#mask-6_1_);fill-rule:evenodd;clip-rule:evenodd;fill:#0065E6;}
</style>
<g id="Final">
	<g id="Product-design---desktop" transform="translate(-156.000000, -1084.000000)">
		<g id="Group-15" transform="translate(156.000000, 1084.000000)">
			<g id="Mask">
			</g>
			<defs>
				<filter id="Adobe_OpacityMaskFilter" filterUnits="userSpaceOnUse" x="0" y="6.2" width="80" height="68.8">
					<feColorMatrix  type="matrix" values="1 0 0 0 0  0 1 0 0 0  0 0 1 0 0  0 0 0 1 0"/>
				</filter>
			</defs>
			<mask maskUnits="userSpaceOnUse" x="0" y="6.2" width="80" height="68.8" id="mask-2_1_">
				<g class="st0">
					<rect id="path-1_1_" class="st1" width="80" height="80"/>
				</g>
			</mask>
			<g class="st2">
				<g transform="translate(0.000000, 6.250000)">
					<g id="Group-3" transform="translate(0.000000, 48.750000)">
						<g id="Clip-2">
						</g>
						<defs>
							<filter id="Adobe_OpacityMaskFilter_1_" filterUnits="userSpaceOnUse" x="0" y="0" width="40" height="20">
								<feColorMatrix  type="matrix" values="1 0 0 0 0  0 1 0 0 0  0 0 1 0 0  0 0 0 1 0"/>
							</filter>
						</defs>
						<mask maskUnits="userSpaceOnUse" x="0" y="0" width="40" height="20" id="mask-4_1_">
							<g class="st3">
								<polygon id="path-3_1_" class="st1" points="0,0 40,0 40,20 0,20 								"/>
							</g>
						</mask>
						<path id="Fill-1" class="st4" d="M3.8,16.4h32.4L32.4,3.6H7.6L3.8,16.4z M36.8,20H3.2c-1,0-1.9-0.5-2.6-1.3
							c-0.6-0.8-0.8-1.9-0.5-3l4-13.4C4.6,0.9,5.8,0,7.2,0h25.5c1.4,0,2.7,0.9,3.1,2.3l4,13.4c0.3,1,0.1,2.1-0.5,3
							C38.7,19.5,37.8,20,36.8,20L36.8,20z"/>
					</g>
					<path id="Fill-4" class="st5" d="M76.7,68.8h-29c-1,0-1.9-0.8-1.9-1.8s0.8-1.8,1.9-1.8h28.4l-3.9-12.7H46.9l-0.7,2.3
						c-0.3,1-1.3,1.5-2.3,1.2c-1-0.3-1.6-1.3-1.3-2.3l0.8-2.6c0.4-1.4,1.7-2.3,3.2-2.3h26.1c1.5,0,2.7,0.9,3.2,2.3l4.1,13.4
						c0.3,1,0.1,2.1-0.5,3C78.7,68.3,77.7,68.8,76.7,68.8"/>
					<path id="Fill-6" class="st5" d="M21.8,43.8c-0.2,0-0.3,0-0.5-0.1c-1-0.3-1.5-1.3-1.2-2.3l4-13.9c0.4-1.4,1.7-2.4,3.1-2.4h25.6
						c1.4,0,2.7,1,3.1,2.4l4,13.9c0.3,1-0.3,2-1.2,2.3c-1,0.3-2-0.3-2.3-1.3l-3.9-13.6H27.5l-3.9,13.6
						C23.4,43.2,22.6,43.8,21.8,43.8"/>
					<g id="Group-10" transform="translate(38.750000, 0.000000)">
						<g id="Clip-9">
						</g>
						<defs>
							<filter id="Adobe_OpacityMaskFilter_2_" filterUnits="userSpaceOnUse" x="0" y="0" width="3.8" height="15">
								<feColorMatrix  type="matrix" values="1 0 0 0 0  0 1 0 0 0  0 0 1 0 0  0 0 0 1 0"/>
							</filter>
						</defs>
						<mask maskUnits="userSpaceOnUse" x="0" y="0" width="3.8" height="15" id="mask-6_1_">
							<g class="st6">
								<polygon id="path-5_1_" class="st1" points="0,0 3.8,0 3.8,15 0,15 								"/>
							</g>
						</mask>
						<path id="Fill-8" class="st7" d="M1.9,15c-1,0-1.9-0.8-1.9-1.8V1.8C0,0.8,0.8,0,1.9,0c1,0,1.9,0.8,1.9,1.8v11.4
							C3.8,14.2,2.9,15,1.9,15"/>
					</g>
					<path id="Fill-11" class="st5" d="M56.8,18.8c-0.4,0-0.9-0.2-1.2-0.5C55.2,17.9,55,17.4,55,17c0-0.4,0.2-0.9,0.5-1.2l3.9-3.9h0
						L63.3,8c0.7-0.7,1.8-0.7,2.5,0c0.3,0.3,0.5,0.8,0.5,1.2c0,0.4-0.2,0.9-0.5,1.2L58,18.2C57.6,18.6,57.2,18.8,56.8,18.8"/>
					<path id="Fill-13" class="st5" d="M23.2,18.8c-0.4,0-0.9-0.2-1.2-0.5l-7.7-7.7c-0.3-0.3-0.5-0.8-0.5-1.2c0-0.4,0.2-0.9,0.5-1.2
						c0.7-0.7,1.8-0.7,2.5,0l3.9,3.9l0,0l3.9,3.9c0.3,0.3,0.5,0.8,0.5,1.2c0,0.4-0.2,0.9-0.5,1.2C24.1,18.6,23.7,18.8,23.2,18.8"/>
				</g>
			</g>
		</g>
	</g>
</g>
</svg>
